src/actions/16/mail-mark-notjunk.svg

<svg version="1.1" viewBox="0 0 16 16" xmlns="http://www.w3.org/2000/svg">
 <defs>
  <style id="current-color-scheme" type="text/css">.ColorScheme-Text {
        color:#363636;
      }</style>
 </defs>
 <path d="m12.5 8a3.5 3.5 0 0 0-3.5 3.5 3.5 3.5 0 0 0 3.5 3.5 3.5 3.5 0 0 0 3.5-3.5 3.5 3.5 0 0 0-3.5-3.5zm1.9902 1.3789 0.70703 0.70703-3.5352 3.5352-2.1211-2.1211 0.70703-0.70703 1.4141 1.4141 2.8281-2.8281z" style="fill:currentColor" class="ColorScheme-Text"/>
 <path d="m2 2c-1.108 0-2 0.892-2 2v8c0 1.108 0.892 2 2 2h6.7617a4.5 4.5 0 0 1-0.49805-1h-6.2637c-0.48888 0-0.87448-0.35406-0.96289-0.81641l4.4609-3.5508 1.1699 0.93164c0.43359 0.34528 1.033 0.48042 1.6016 0.41602a4.5 4.5 0 0 1 1.0879-1.7012l-0.81836 0.65234c-0.30559 0.24335-0.77256 0.24335-1.0781 0l-6.4238-5.1152c0.088406-0.46235 0.47401-0.81641 0.96289-0.81641h12c0.48888 0 0.87448 0.35406 0.96289 0.81641l-4.8906 3.8945a4.5 4.5 0 0 1 2.4277-0.71094 4.5 4.5 0 0 1 0.04687 0.00195l2.4531-1.9531v2.7109a4.5 4.5 0 0 1 1 0.91406v-4.6738c0-1.108-0.892-2-2-2zm-1 3.0488 3.7051 2.9512-3.7051 2.9512z" style="fill:currentColor" class="ColorScheme-Text"/>
</svg>

<svg xmlns="http://www.w3.org/2000/svg" viewBox="0 0 16 16">
    <defs>
        <style id="current-color-scheme" type="text/css">
            .ColorScheme-Text{color:#050505;opacity:.7}
        </style>
    </defs>
    <path d="M12.5 8A3.5 3.5 0 0 0 9 11.5a3.5 3.5 0 0 0 3.5 3.5 3.5 3.5 0 0 0 3.5-3.5A3.5 3.5 0 0 0 12.5 8zm1.99 1.379.707.707-3.535 3.535L9.541 11.5l.707-.707 1.414 1.414L14.49 9.38z" class="ColorScheme-Text" style="fill:currentColor"/>
    <path d="M2 2C.892 2 0 2.892 0 4v8c0 1.108.892 2 2 2h6.762a4.5 4.5 0 0 1-.498-1H2a.983.983 0 0 1-.963-.816l4.461-3.551 1.17.931c.433.346 1.033.48 1.601.416a4.5 4.5 0 0 1 1.088-1.7l-.818.652a.887.887 0 0 1-1.078 0L1.037 3.816A.983.983 0 0 1 2 3h12c.489 0 .874.354.963.816l-4.89 3.895A4.5 4.5 0 0 1 12.5 7a4.5 4.5 0 0 1 .047.002L15 5.049v2.71a4.5 4.5 0 0 1 1 .915V4c0-1.108-.892-2-2-2zM1 5.049 4.705 8 1 10.951z" class="ColorScheme-Text" style="fill:currentColor"/>
</svg>
